actions/22x22-light/media-album-repeat-amarok.svg

<svg xmlns="http://www.w3.org/2000/svg" viewBox="0 0 22 22">
 <defs id="defs3051">
   <style type="text/css" id="current-color-scheme">
     .ColorScheme-Text {
       color:#4d4d4d;
     }
     </style>
 </defs>
   <path
      style="fill:currentColor;fill-opacity:1;stroke:none"
      d="m3.88867 3c-.49244 0-.88867.35758-.88867.80078v14.39844c0 .4432.39623.80078.88867.80078h14.22266c.49244 0 .88867-.35758.88867-.80078v-14.39844c0-.4432-.39623-.80078-.88867-.80078zm9.96289 3.5c.19284.034.33594.21514.33594.45703l-.0156 6.28906c-.0636.46938-.46283.91496-1.04102 1.07227-.72472.19717-1.43839-.13202-1.59375-.7207-.15535-.58869.2987-1.22471 1.02344-1.42188.40161-.10921.78823-.0442 1.08985.1211v-3.8125l-3.75781 1.05468-.0176 4.83203c-.0636.46931-.46088.91503-1.03906 1.07227-.72473.19717-1.43841-.13209-1.59375-.7207-.15536-.58876.2987-1.22666 1.02343-1.42383.40163-.10922.78821-.0423 1.08985.12305v-5.11133c0-.32251.23966-.65479.53711-.73828l3.95898-1.07227zm.21485 9.16602h4v2 .5h-1.5v.5l-1.5-.75 1.5-.75v.5h1v-1.5h-3v2h-.5z"
      class="ColorScheme-Text" />
</svg>

<svg xmlns="http://www.w3.org/2000/svg" viewBox="0 0 22 22">
  <defs id="defs3051">
    <style type="text/css" id="current-color-scheme">
      .ColorScheme-Text {
        color:#4d4d4d
      }
      </style>
  </defs>
 <path 
     style="fill:currentColor;fill-opacity:1;stroke:none"      
	 class="ColorScheme-Text"
        d="M 3.88867,3 C 3.39623,3 3,3.35758 3,3.80078 L 3,18.19922 C 3,18.64242 3.39623,19 3.88867,19 l 14.22266,0 C 18.60377,19 19,18.64242 19,18.19922 L 19,3.80078 C 19,3.35758 18.60377,3 18.11133,3 L 3.88867,3 Z m 9.96289,3.5 c 0.19284,0.034 0.33594,0.21514 0.33594,0.45703 l -0.0156,6.28906 c -0.0636,0.46938 -0.46283,0.91496 -1.04102,1.07227 -0.72472,0.19717 -1.43839,-0.13202 -1.59375,-0.7207 -0.15535,-0.58869 0.2987,-1.22471 1.02344,-1.42188 0.40161,-0.10921 0.78823,-0.0442 1.08985,0.1211 l 0,-3.8125 -3.75781,1.05468 -0.0176,4.83203 C 9.81141,14.8404 9.41413,15.28612 8.83595,15.44336 8.11122,15.64053 7.39754,15.31127 7.2422,14.72266 7.08684,14.1339 7.5409,13.496 8.26563,13.29883 c 0.40163,-0.10922 0.78821,-0.0423 1.08985,0.12305 l 0,-5.11133 c 0,-0.32251 0.23966,-0.65479 0.53711,-0.73828 L 13.85157,6.5 Z m 0.21485,9.16602 4,0 0,2 0,0.5 -1.5,0 0,0.5 -1.5,-0.75 1.5,-0.75 0,0.5 1,0 0,-1.5 -3,0 0,2 -0.5,0 0,-2.5 z"
     />
</svg>
